X:1
T:Title
%%score { ( 1 3 ) | ( 2 4 ) }
L:1/8
M:3/2
K:D
V:1 treble nm="Grand Piano"
V:3 treble 
V:2 bass 
V:4 bass 
V:1
 z4 z4[Q:1/4=108] [A,FA]4 | [A,DF]2 [A,FA]2 [A,FA]2 [DFA]2 [DGB]2 [DFA]2 | %2
 [DFA]4 [A,FA]2 [A,EG]2 E2- [EB]2 |[M:4/4] B2 A2 A4 |[M:2/4] [EA]4 | %5
[M:6/4] [DF]2 [FA]2 [FA]2 [FA]2 [GB]2 [FA]2 | [FA]4 [Ad]2- [Ad]2 [Ge]4 | [DFd]6- [DFd]2 [DAd]4 | %8
 [DAc]2 [DGB]2 [DGB]2- [DGB]2 [EGc]4 | [CEB]2 [CEA]2 [DA]2- [DA]2 [B,FB]4 | %10
 [=CFA]2 [B,EG]2 [B,EG]2- [B,EG]2 [A,EA]4 |[M:4/4] [B,DG]2 [A,DF]2 [A,DF]4 |[M:2/4] [DAd]4 | %13
[M:6/4] [DAc]2 [DGB]2 [DGB]2- [DGB]2 [EGc]4 | [CEB]2 [CEA]2 [DA]2- [DA]2 [DFA]2 [DFA]2 | %15
 [DGB]4 [Ec]2- [Ec]2- [EA-c-]>[Ac] [EGc]2 |[M:4/4] [DFd]8 |] %17
V:2
 z4 z4 D,4 | D,2 D,2 D,2 D,2 D,2 D,2 | D,4 C,2 C,2 z2 G,2 |[M:4/4] [D,G,D]2 [D,F,D]2 [D,F,D]4 | %4
[M:2/4] [C,A,]4 |[M:6/4] [D,A,]2 [D,A,]2 [D,A,]2 [D,C]2 [D,D]2 [D,D]2 | %6
 [D,D]4 [F,D]2- [F,D]2 [A,C]4 | D,6- D,2 F,4 | G,2 G,2 G,2- G,2 E,4 | G,2 G,2 F,2- F,2 ^D,4 | %10
 E,2 E,2 E,2- E,2 C,4 |[M:4/4] D,2 D,2 D,4 |[M:2/4] F,4 |[M:6/4] G,2 G,2 G,2- G,2 E,4 | %14
 G,2 G,2 F,2- F,2 D,2 D,2 | .G,6 B2 A,2 A,2 |[M:4/4] D,8 |] %17
V:3
 x12 | x12 | z4 z4 .[A,G]4 |[M:4/4] x8 |[M:2/4] x4 |[M:6/4] x12 | x12 | x12 | x12 | x12 | x12 | %11
[M:4/4] x8 |[M:2/4] x4 |[M:6/4] x12 | x12 | z4 G2 z6 |[M:4/4] x8 |] %17
V:4
 x12 | x12 | z4 z4 A,,4 |[M:4/4] x8 |[M:2/4] x4 |[M:6/4] x12 | x12 | x12 | x12 | x12 | x12 | %11
[M:4/4] x8 |[M:2/4] x4 |[M:6/4] x12 | x12 | z4 E,2- E,2 z2 z2 |[M:4/4] x8 |] %17

